svg/about/integrity.svg

<svg width="64" height="41" viewBox="0 0 64 41" fill="none" xmlns="http://www.w3.org/2000/svg">
<path d="M53.553 21.8821L47.2736 9.29142C47.2026 9.15222 47.1085 9.02262 46.9888 8.91414C46.8688 8.80598 46.7344 8.72662 46.5942 8.67638L39.231 6.02998C38.7181 5.84566 38.1686 5.74678 37.5968 5.7519C37.0256 5.75798 36.4787 5.86774 35.9683 6.06198L30.3814 8.19318C29.9882 8.34358 29.5978 8.51638 29.2128 8.71318C29.0842 8.77974 28.9578 8.85174 28.832 8.92246C28.4102 8.69398 27.9699 8.4927 27.5104 8.3215C26.0448 7.77366 24.544 7.5887 23.0915 7.71286L19.3328 8.03542C19.1693 8.0495 19.0042 8.10006 18.8499 8.19062C18.6957 8.2815 18.5683 8.40406 18.4682 8.54582L10.0048 20.5941C9.8304 20.8415 9.73728 21.1564 9.76576 21.4895C9.7936 21.8226 9.93696 22.1148 10.1488 22.3247L13.8301 25.973C13.6282 26.3426 13.5002 26.7577 13.4707 27.2018C13.4176 27.9999 13.6797 28.7705 14.2064 29.3717C14.7338 29.9727 15.463 30.3327 16.2618 30.3849C16.3043 30.3877 16.3475 30.3877 16.3907 30.3893C16.0634 31.4476 16.3312 32.6495 17.184 33.4565C17.6944 33.9397 18.3488 34.2213 19.0442 34.2665C18.5962 35.3769 18.8384 36.701 19.7539 37.5673C20.3123 38.0965 21.0426 38.3874 21.8122 38.3874C22.6134 38.3874 23.361 38.0745 23.9254 37.5093C24.1354 38.8655 25.2621 39.9468 26.687 40.0399C26.7526 40.0444 26.8198 40.0473 26.8854 40.0473C27.2496 40.0473 27.5984 39.9785 27.9229 39.8575C28.4528 40.2108 29.0845 40.4053 29.7568 40.3781C30.583 40.3436 31.3242 39.9791 31.8784 39.4089L29.8538 37.3887C29.8586 37.342 29.8672 37.2972 29.8691 37.2489C29.8954 36.8521 29.841 36.4681 29.7229 36.1113L33.8666 40.2444C34.3894 40.4572 34.9584 40.5637 35.551 40.5397C36.737 40.4914 37.7933 39.9314 38.5414 39.0649L38.9562 38.5839C38.9946 38.5385 39.024 38.4873 39.0496 38.4322L32.6698 32.07C32.5053 31.9071 32.4922 31.6361 32.6381 31.4655C32.7843 31.2959 33.0378 31.2901 33.201 31.453L40.7885 39.0194C41.2019 39.1644 41.6445 39.2351 42.1043 39.2162C43.1469 39.1737 44.0771 38.6812 44.7347 37.918L45.7366 36.7583C45.9664 36.4908 46.1034 36.1298 46.0906 35.7375L39.4323 29.0994C39.2698 28.9362 39.255 28.6645 39.401 28.4953C39.5482 28.3253 39.801 28.3196 39.9638 28.4825L46.6534 35.1529C46.928 35.2261 47.2163 35.262 47.5126 35.2501C48.3674 35.2156 49.1277 34.8124 49.6659 34.1874L49.935 33.8757C50.4736 33.2521 50.791 32.4073 50.7587 31.4885C50.7261 30.5701 50.3517 29.7541 49.7712 29.1749L47.9853 27.3945L48.4365 27.8437L53.2653 23.4834C53.4704 23.2991 53.6192 23.0409 53.6736 22.7375C53.7277 22.4345 53.6787 22.1353 53.553 21.8821ZM16.3456 29.094C15.8928 29.0645 15.4787 28.8604 15.1789 28.5186C14.8794 28.1778 14.7315 27.7404 14.7616 27.2866C14.8189 26.3961 15.5645 25.6988 16.4547 25.6988C16.4925 25.6988 16.5309 25.6997 16.5686 25.702C17.0214 25.7321 17.4355 25.9359 17.7354 26.2777C18.0349 26.6191 18.1827 27.0562 18.1536 27.51C18.0915 28.4383 17.2848 29.1567 16.3456 29.094ZM19.2406 32.982C18.8045 32.982 18.3898 32.8175 18.073 32.5177C17.4006 31.8821 17.3642 30.8111 17.9882 30.134C18.0205 30.1004 18.6835 29.3989 19.0016 29.0642L19.1686 28.8866C19.4931 28.5442 19.9315 28.3554 20.4032 28.3554C20.8397 28.3554 21.2547 28.5209 21.5709 28.8213C21.9008 29.133 22.0899 29.5545 22.1021 30.0089C22.1146 30.4617 21.9494 30.8933 21.6378 31.2223L21.1648 31.7225C21.0637 31.8287 20.9552 31.9436 20.8442 32.0607C20.8266 32.0805 20.807 32.1004 20.7901 32.1189C20.7075 32.2057 20.6346 32.2825 20.5779 32.3417C20.5456 32.3765 20.5133 32.4114 20.48 32.4453C20.4717 32.454 20.4653 32.4613 20.4646 32.4623C20.1427 32.7977 19.7072 32.982 19.2406 32.982ZM23.0349 36.5743C22.712 36.9097 22.2778 37.094 21.8115 37.094C21.375 37.094 20.9594 36.9285 20.6435 36.6284C19.9715 35.9929 19.9347 34.9221 20.5568 34.2482C20.5715 34.2322 20.961 33.8201 21.4022 33.3545C21.4022 33.3541 21.4022 33.3541 21.4022 33.3541L21.7299 33.0082C22.3037 32.4009 22.4918 32.2034 22.5552 32.1346C22.5626 32.1279 22.5712 32.1199 22.5773 32.1129L22.5786 32.1119C22.6339 32.0521 22.6662 32.0188 22.6672 32.0178C22.991 31.6754 23.4301 31.4863 23.9021 31.4863C24.3386 31.4863 24.7526 31.6514 25.0698 31.9516C25.3997 32.2639 25.5878 32.6857 25.6003 33.1388C25.6128 33.5935 25.4477 34.0249 25.1347 34.3554C25.1043 34.3874 23.1005 36.5045 23.0349 36.5743ZM26.7712 38.7503C25.8362 38.6882 25.1251 37.8773 25.1869 36.9429C25.2454 36.0517 25.9882 35.3545 26.8797 35.3545C26.9174 35.3545 26.9558 35.3557 26.9936 35.358C27.9283 35.4194 28.6394 36.2303 28.5786 37.165C28.5171 38.0927 27.7117 38.8121 26.7712 38.7503ZM47.5472 26.958L34.3203 13.7708L34.4694 13.3941C34.5466 13.1977 34.5366 12.9657 34.4237 12.7705C34.3104 12.5759 34.121 12.4626 33.9226 12.4521L32.9395 12.3932L31.8656 12.3295L31.784 13.6025C31.783 13.629 31.5702 16.5237 30.0941 19.1391C28.5808 21.8229 26.5757 22.7484 26.2701 22.8079C25.9286 22.8741 25.5706 22.9372 25.273 22.9372C25.0685 22.9372 24.911 22.9084 24.7763 22.8466L24.2742 22.614C24.0637 22.5164 23.903 22.3372 23.8182 22.1087C23.7357 21.8882 23.7366 21.6473 23.8182 21.4274L28.849 10.3868L29.7043 9.82326L30.049 9.69206H30.0483L36.3709 7.28054C36.7683 7.12918 37.1846 7.04982 37.6074 7.04598L37.6426 7.04566C38.0528 7.04566 38.4592 7.1167 38.8483 7.25686L46.2118 9.90326L52.4918 22.4937L47.5472 26.958Z" fill="#E95C6D"/>
<path d="M54.7037 1.25024L49.7328 3.72864C49.0179 4.08608 48.4381 4.71584 48.1642 5.53376C47.8906 6.352 47.9754 7.20352 48.3309 7.92L54.8394 20.968C55.1962 21.6826 55.8256 22.2634 56.6451 22.536C57.4624 22.8099 58.3139 22.7264 59.0301 22.3693L64 19.8896L54.7037 1.25024ZM59.0173 19.8973C58.3571 19.8973 57.8202 19.3619 57.8202 18.7008C57.8202 18.039 58.3571 17.5024 59.0173 17.5024C59.6787 17.5024 60.2157 18.039 60.2157 18.7008C60.2157 19.3619 59.6787 19.8973 59.0173 19.8973Z" fill="#E95C6D"/>
<path d="M0 17.0445L4.54464 20.2371C5.19872 20.6973 6.02848 20.9069 6.8784 20.7581C7.72896 20.6099 8.43744 20.1306 8.89664 19.4768L17.2784 7.54528C17.7389 6.89152 17.9485 6.0608 17.8003 5.21152C17.6509 4.36128 17.1734 3.65216 16.5187 3.192L11.9734 0L0 17.0445ZM3.92 16.432C4.01856 15.7779 4.6288 15.3277 5.28192 15.4259C5.93664 15.5248 6.38624 16.1354 6.28832 16.7891C6.18944 17.4438 5.57984 17.8941 4.92544 17.7946C4.27104 17.6966 3.82112 17.0867 3.92 16.432Z" fill="#E95C6D"/>
</svg>

<svg width="64" height="41" viewBox="0 0 64 41" fill="none" xmlns="http://www.w3.org/2000/svg"><path d="M53.553 21.882l-6.28-12.59a1.309 1.309 0 00-.284-.378 1.19 1.19 0 00-.395-.238L39.231 6.03a4.694 4.694 0 00-1.634-.278 4.705 4.705 0 00-1.629.31l-5.587 2.131c-.393.15-.783.323-1.168.52-.129.067-.255.139-.381.21-.422-.229-.862-.43-1.322-.601a10.111 10.111 0 00-4.419-.61l-3.758.323a1.148 1.148 0 00-.483.156c-.154.09-.282.213-.382.355l-8.463 12.048a1.353 1.353 0 00-.24.895c.029.334.172.626.384.836l3.681 3.648a2.973 2.973 0 00.376 3.399 2.974 2.974 0 002.056 1.013c.042.003.085.003.129.004a3.001 3.001 0 00.793 3.067c.51.484 1.165.765 1.86.81a3.004 3.004 0 00.71 3.301c.558.53 1.289.82 2.058.82.801 0 1.549-.313 2.113-.878a2.998 2.998 0 002.96 2.538c.365 0 .713-.069 1.038-.19.53.354 1.162.548 1.834.521a3.133 3.133 0 002.121-.97l-2.024-2.02c.005-.046.013-.09.015-.14a2.984 2.984 0 00-.146-1.137l4.144 4.133a4.02 4.02 0 001.684.296c1.186-.049 2.242-.609 2.99-1.475l.415-.481a.665.665 0 00.094-.152l-6.38-6.362a.452.452 0 01-.032-.605.38.38 0 01.563-.012l7.587 7.566c.414.145.857.216 1.316.197 1.043-.042 1.973-.535 2.63-1.298l1.003-1.16a1.49 1.49 0 00.354-1.02l-6.659-6.639a.453.453 0 01-.031-.604.38.38 0 01.563-.012l6.69 6.67c.274.073.562.109.859.097a2.996 2.996 0 002.153-1.063l.269-.311a3.46 3.46 0 00.824-2.387 3.428 3.428 0 00-.988-2.314l-1.786-1.78.452.449 4.828-4.36c.205-.185.354-.443.409-.747a1.379 1.379 0 00-.121-.855zm-37.207 7.212a1.687 1.687 0 01-1.167-.575 1.702 1.702 0 012.556-2.24c.3.34.448.777.419 1.231a1.703 1.703 0 01-1.808 1.584zm2.895 3.888c-.436 0-.851-.164-1.168-.464a1.705 1.705 0 01-.085-2.384c.032-.034.695-.735 1.014-1.07l.167-.177a1.685 1.685 0 011.234-.532c.437 0 .852.166 1.168.466.33.312.519.733.531 1.188.013.453-.153.884-.464 1.213l-.473.5-.32.339-.055.058-.212.223c-.032.035-.065.07-.098.103a1.682 1.682 0 01-1.24.537zm3.794 3.592c-.323.336-.757.52-1.224.52a1.69 1.69 0 01-1.168-.466 1.703 1.703 0 01-.086-2.38l.845-.893.328-.347.825-.873a.284.284 0 00.022-.022l.002-.001.088-.094a1.685 1.685 0 011.235-.532c.437 0 .85.165 1.168.466.33.312.518.734.53 1.187.013.454-.152.886-.465 1.216l-2.1 2.22zm3.736 2.176a1.702 1.702 0 01-1.584-1.807 1.701 1.701 0 011.807-1.585 1.703 1.703 0 011.585 1.807 1.704 1.704 0 01-1.808 1.585zm20.776-11.792L34.32 13.771l.15-.377a.722.722 0 00-.046-.623.622.622 0 00-.501-.319l-.983-.059-1.074-.064-.082 1.273c-.001.027-.214 2.922-1.69 5.537-1.513 2.684-3.518 3.61-3.824 3.669-.341.066-.7.13-.997.13-.204 0-.362-.03-.497-.091l-.502-.233a.887.887 0 01-.456-.505.974.974 0 010-.682l5.031-11.04.855-.564.345-.13L36.37 7.28c.397-.152.814-.231 1.236-.235h.036c.41 0 .816.07 1.205.21l7.364 2.647 6.28 12.59-4.945 4.465zM54.704 1.25L49.733 3.73A3.123 3.123 0 0048.33 7.92l6.508 13.048a3.11 3.11 0 001.806 1.568c.817.274 1.669.19 2.385-.167L64 19.89 54.704 1.25zm4.313 18.647a1.197 1.197 0 110-2.394 1.197 1.197 0 010 2.394zM0 17.044l4.545 3.193a3.11 3.11 0 002.333.521 3.11 3.11 0 002.019-1.281l8.381-11.932c.46-.653.67-1.484.522-2.333a3.118 3.118 0 00-1.281-2.02L11.973 0 0 17.044zm3.92-.612a1.198 1.198 0 112.369.357 1.198 1.198 0 01-2.369-.357z" fill="#E95C6D"/></svg>
